Newaita/actions/32/format-border-set-external.svg

<svg height="32" viewBox="0 0 32 32" width="32" xmlns="http://www.w3.org/2000/svg"><g fill="#424242"><path d="m6.613281 5.542969h18.523438c.730469 0 1.324219.589843 1.324219 1.324219v18.519531c0 .730469-.59375 1.324219-1.324219 1.324219h-18.523438c-.730469 0-1.320312-.59375-1.320312-1.324219v-18.519531c0-.734376.589843-1.324219 1.320312-1.324219zm0 0" fill-opacity=".392157"/><path d="m3.96875 15.464844h23.816406v1.324218h-23.816406zm0 0"/><path d="m16.539062 4.21875v23.816406h-1.324218v-23.816406zm0 0"/></g><path d="m5.292969 2.894531c-1.464844 0-2.648438 1.183594-2.648438 2.648438v21.167969c0 1.464843 1.183594 2.644531 2.648438 2.644531h21.167969c1.464843 0 2.644531-1.179688 2.644531-2.644531v-21.167969c0-1.464844-1.179688-2.648438-2.644531-2.648438zm1.320312 2.648438h18.523438c.734375 0 1.324219.589843 1.324219 1.320312v18.523438c0 .734375-.589844 1.324219-1.324219 1.324219h-18.523438c-.730469 0-1.320312-.589844-1.320312-1.324219v-18.523438c0-.730469.589843-1.320312 1.320312-1.320312zm0 0" fill="#7e57c2"/></svg>

<svg xmlns="http://www.w3.org/2000/svg" xmlns:xlink="http://www.w3.org/1999/xlink" width="32px" height="32px" viewBox="0 0 32 32" version="1.1">
<g id="surface1">
<path style=" stroke:none;fill-rule:nonzero;fill:rgb(25.882354%,25.882354%,25.882354%);fill-opacity:0.392157;" d="M 6.613281 5.542969 L 25.136719 5.542969 C 25.867188 5.542969 26.460938 6.132812 26.460938 6.867188 L 26.460938 25.386719 C 26.460938 26.117188 25.867188 26.710938 25.136719 26.710938 L 6.613281 26.710938 C 5.882812 26.710938 5.292969 26.117188 5.292969 25.386719 L 5.292969 6.867188 C 5.292969 6.132812 5.882812 5.542969 6.613281 5.542969 Z M 6.613281 5.542969 "/>
     <defs>
  <style id="current-color-scheme" type="text/css">
   .ColorScheme-Text { color:#424242; } .ColorScheme-Highlight { color:#eeeeee; }
  </style>
 </defs>
<path style="fill:currentColor" class="ColorScheme-Text" d="M 3.96875 15.464844 L 27.785156 15.464844 L 27.785156 16.789062 L 3.96875 16.789062 Z M 3.96875 15.464844 "/>
     <defs>
  <style id="current-color-scheme" type="text/css">
   .ColorScheme-Text { color:#424242; } .ColorScheme-Highlight { color:#eeeeee; }
  </style>
 </defs>
<path style="fill:currentColor" class="ColorScheme-Text" d="M 16.539062 4.21875 L 16.539062 28.035156 L 15.214844 28.035156 L 15.214844 4.21875 Z M 16.539062 4.21875 "/>
<path style=" stroke:none;fill-rule:nonzero;fill:rgb(49.411765%,34.117648%,76.078433%);fill-opacity:1;" d="M 5.292969 2.894531 C 3.828125 2.894531 2.644531 4.078125 2.644531 5.542969 L 2.644531 26.710938 C 2.644531 28.175781 3.828125 29.355469 5.292969 29.355469 L 26.460938 29.355469 C 27.925781 29.355469 29.105469 28.175781 29.105469 26.710938 L 29.105469 5.542969 C 29.105469 4.078125 27.925781 2.894531 26.460938 2.894531 Z M 6.613281 5.542969 L 25.136719 5.542969 C 25.871094 5.542969 26.460938 6.132812 26.460938 6.863281 L 26.460938 25.386719 C 26.460938 26.121094 25.871094 26.710938 25.136719 26.710938 L 6.613281 26.710938 C 5.882812 26.710938 5.292969 26.121094 5.292969 25.386719 L 5.292969 6.863281 C 5.292969 6.132812 5.882812 5.542969 6.613281 5.542969 Z M 6.613281 5.542969 "/>
</g>
</svg>
